T: Tommy Darling
M: 4/4
L: 1/8
K: Gmaj
BA | G2 DG BDGB | d>cBc A3 G | F2 DF AFAc | e>d^cd B2BA | GB,DG Bgfg | a>gec A2 f>e | d2 ^cd =cAFD | G2 G> G2 :|Bc | d2 Bd b>gdB |fAAB c2 AB | c2 Ac a>fdc | cBBc d2Bc | d2 ef g2 b2 | a>gec A2 f>e | d2 ^cd =cAFD | G2 G>A G2 :|
